!!!OTL-incipit: Muede kehrt ein Wandersmann zurueck nach der Heimat seiner Liebsten Glueck
!!!ARE: Europa, Mitteleuropa, Deutschland, Wuettemberg, Nagold, Egenhausen
!!!SCT: D1006
!!!TXL: @@DE
!!!YEM: Copyright 1995, estate of Helmut Schaffrath.
**kern
*ICvox
*M4/4
*met(c)
*k[b-]
*F:
{8c
8c
=1
4.a
8g
8f
8e
8f
8g
=2
2c
4r}
{8e
8f
=3
4.g
8f
8e
8g
8b-/;
8a;
=4
2f
4r}
{8f
8g
=5
8a/L
8ccJ
4cc/
8b-/
8a/
8g
8f
=6
2d
8r}
{8f
8f
8d
=7
4.c
8f
8e
8g
8b-/
8a
=8
2f
4r}
{8f
8g
=9
8a/L
8ccJ
4cc/
8b-/
8a
8g
8f
=10
2d
8r}
{8f
8f
8d
=11
4.c
8f
8e
8g
8dd/
8cc/
=12
2a
4r}
==
!!!AGN: Liebes - Lied
!! Tonlaengen im vorletzten Takt korrigiert; DVA-Signatur A 36 810
!!!ONB: ESAC (Essen Associative Code) Database: DVA
!!!AMT: simple quadruple
!!!AIN: vox
!!!EED: Helmut Schaffrath
!!!EEV: 1.0
!!!YOR: https://freidok.uni-freiburg.de/data/150373
!!!EFL: A 036 401 - 037 100 Württ. Archiv (p. 210)
!!!ENC: Anna Maria Matuszewska
!!!EEV: 2025/03/31
*-
